static/img/xr/Slider_24_Text_Anatomy.svg

<svg fill="none" height="52" viewBox="0 0 240 52" width="240" xmlns="http://www.w3.org/2000/svg"><g fill="#89c6ed"><circle cx="29" cy="41" r="1"/><circle cx="39.1428" cy="41" r="1"/><circle cx="49.2858" cy="41" r="1"/><circle cx="59.4286" cy="41" r="1"/><circle cx="69.5714" cy="41" r="1"/><circle cx="79.7142" cy="41" r="1"/><circle cx="89.8572" cy="41" r="1"/><circle cx="100" cy="41" r="1"/><circle cx="110.143" cy="41" r="1"/><circle cx="120.286" cy="41" r="1"/><circle cx="130.429" cy="41" r="1"/><circle cx="140.571" cy="41" r="1"/><circle cx="150.714" cy="41" r="1"/><circle cx="160.857" cy="41" r="1"/><circle cx="171" cy="41" r="1"/><rect height="2" rx="1" width="144" x="28" y="24"/></g><rect fill="#cbcdd6" height="24" rx="8" width="20" x="90" y="13"/><path d="m101.607 26.4267c-.067-.58-.2-1.1533-.414-1.6933-.465.1834-.973.2332-1.4652.1437-.4923-.0895-.9499-.3148-1.3211-.6504-.5533.5733-1.0467 1.2067-1.48 1.8733 1.2733 1.04 3.3663 1.3134 4.6803.3267zm-3.187-3.0733c.3934-.3667.82-.7067 1.2667-1.0067-.4055-.3728-.8815-.6607-1.4-.8467-.3733.58-.32 1.34.1333 1.86m1.727-1.3466c.306-.2267.633-.4067.986-.5467-.308-.3-.7-.4984-1.125-.5688-.4239-.0703-.8595-.0091-1.248.1755.5134.2266.9867.5466 1.393.94m-4.173-.6467c-.8933 1.2667-.4733 3.1133.56 4.2733.4433-.6758.9477-1.3096 1.5067-1.8933-.5733-.6667-.6867-1.6133-.2667-2.3933-.5933-.1467-1.2133-.14-1.8.0133zm1.8-.0133 3.66 2.4733c.44-.56.447-1.3467.02-1.9133-.333.1333-.64.32-.92.54.353.42.66.88.9 1.3733m-3.2866-3.0467c.3933-.28.86-.4333 1.34-.4466-.9867-.1667-2-.0534-2.9267.3333.5333-.06 1.0733-.02 1.5867.1133zm2.8466 3.3934c-.24-.5067-.547-.9734-.907-1.3934-.453.3-.8796.64-1.2796 1.0067.6.5267 1.4466.68 2.1866.3867zm1.3-1.4067c.087.6133-.153 1.2267-.627 1.6333.194.4934.34 1 .427 1.52.31-.4605.492-.9953.528-1.5495.035-.5542-.078-1.1078-.328-1.6038zm-.113 3.94c.013.38 0 .7667-.054 1.1467.702-.8996 1.04-2.0298.947-3.1667-.067.7533-.38 1.46-.893 2.02zm3.833-1.6933-2.647-1.5334c.314 1 .307 2.0667-.013 3.0667zm-9.36 1.66c-.3866.6333-.6733 1.3266-.84 2.0533.8087.6094 1.7981.9306 2.8106.9125 1.0124-.0181 1.9894-.3746 2.7764-1.0125.18-.4667.266-.9667.253-1.4667-.792.409-1.6848.5806-2.5718.4943-.8869-.0863-1.7301-.427-2.4282-.9809zm-.4133-.48c-.5242-.5337-.9048-1.1914-1.1065-1.9117-.2016-.7204-.2178-1.4801-.0468-2.2083-.7368.869-1.1185 1.984-1.0691 3.1222s.5264 2.2159 1.3357 3.0178c.2067-.7134.5067-1.3934.8934-2.02m1.2066-6.3267-2.6333-1.5133v3.0333c.7014-.7631 1.6209-1.2915 2.6333-1.5133zm-2.6333 11.8067 2.6533-1.5334c-1.0199-.2212-1.9466-.752-2.6533-1.52z" fill="#252a2e"/><path d="m197.978 21h-.501v-3.8437h-1.348v-.4395h3.19v.4395h-1.341zm2.402-3.2109v3.2109h-.486v-3.2109zm-.237-1.2012c.08 0 .148.0264.205.0791.058.0508.088.1309.088.2403 0 .1074-.03.1875-.088.2402-.057.0527-.125.0791-.205.0791-.084 0-.155-.0264-.211-.0791-.055-.0527-.082-.1328-.082-.2402 0-.1094.027-.1895.082-.2403.056-.0527.127-.0791.211-.0791zm2.305 4.0723c.08 0 .162-.0068.246-.0205s.153-.0303.205-.0498v.3779c-.056.0254-.135.0469-.237.0645-.1.0175-.197.0263-.293.0263-.17 0-.324-.0293-.463-.0879-.138-.0605-.25-.1621-.334-.3047-.082-.1425-.123-.3398-.123-.5918v-1.9042h-.457v-.2374l.46-.1904.194-.6972h.292v.7441h.941v.3809h-.941v1.8896c0 .2012.046.3516.138.4512.094.0996.218.1494.372.1494zm1.591.3398h-.489v-4.5586h.489zm2.265-3.2695c.273 0 .508.0605.703.1816s.345.2911.448.5098c.104.2168.155.4707.155.7617v.3018h-2.217c.005.3769.099.664.281.8613.181.1973.437.2959.767.2959.204 0 .383-.0185.539-.0557.157-.0371.319-.0918.487-.164v.4277c-.162.0723-.323.125-.484.1582-.158.0332-.345.0498-.562.0498-.309 0-.578-.0625-.809-.1875-.228-.1269-.406-.3125-.533-.5566-.127-.2442-.19-.543-.19-.8965 0-.3457.057-.6445.173-.8965.117-.2539.281-.4492.492-.5859.213-.1367.463-.2051.75-.2051zm-.006.3984c-.26 0-.467.085-.621.2549-.155.1699-.246.4072-.276.7119h1.7c-.002-.1914-.033-.3593-.091-.5039-.057-.1465-.144-.2597-.261-.3398-.117-.082-.268-.1231-.451-.1231z" fill="#252a2e"/><path d="m194.456 27.8614-2.427 7.1386h-1.65l-2.422-7.1386h1.528l1.343 4.248c.023.0716.06.2067.112.4053.053.1953.105.4036.157.625.055.2181.092.3987.112.542.02-.1433.054-.3239.103-.542.052-.2181.102-.4248.151-.6201.052-.1986.089-.3353.112-.4102l1.353-4.248zm3.023 1.5673c.732 0 1.293.1595 1.684.4786.391.319.586.804.586 1.455v3.6377h-1.04l-.288-.7422h-.039c-.156.1954-.316.3549-.479.4786-.162.1237-.35.2148-.561.2734-.212.0586-.469.0879-.772.0879-.322 0-.612-.0619-.869-.1856-.254-.1237-.454-.3125-.6-.5664-.147-.2571-.22-.5826-.22-.9765 0-.5795.203-1.0059.61-1.2793.407-.2767 1.017-.4297 1.831-.459l.948-.0293v-.2393c0-.2864-.075-.4964-.225-.6298-.15-.1335-.358-.2002-.625-.2002-.264 0-.523.0374-.776.1123-.254.0748-.508.1692-.762.2832l-.493-1.0059c.289-.153.613-.2734.971-.3613.362-.0879.734-.1319 1.119-.1319zm.791 3.042-.577.0196c-.481.013-.817.0992-1.005.2588-.186.1595-.279.3694-.279.6298 0 .2279.067.3907.2.4883.134.0944.308.1416.523.1416.319 0 .587-.0944.806-.2832.221-.1888.332-.4573.332-.8056zm4.506 2.5293h-1.489v-7.5976h1.489zm6.578-5.459v5.459h-1.143l-.2-.6982h-.078c-.118.1855-.264.3369-.44.4541s-.369.2034-.581.2588c-.211.0553-.431.083-.659.083-.391 0-.731-.0684-1.021-.2051-.289-.14-.516-.3564-.678-.6494-.16-.293-.24-.6738-.24-1.1426v-3.5596h1.49v3.1885c0 .3906.07.6852.21.8838s.363.2979.669.2979c.302 0 .54-.0684.713-.2051.172-.14.292-.3434.361-.6104.071-.2701.107-.5989.107-.9863v-2.5684zm3.813-.1025c.505 0 .939.0977 1.304.293.364.192.646.472.844.8398.199.3679.298.8171.298 1.3477v.7226h-3.52c.016.42.141.7504.376.9912.237.2377.566.3565.986.3565.348 0 .667-.0358.957-.1074s.588-.1791.894-.3223v1.1523c-.271.1335-.554.2312-.85.293-.293.0619-.649.0928-1.069.0928-.547 0-1.032-.1009-1.455-.3027-.42-.2019-.751-.5095-.992-.9229-.237-.4134-.356-.9342-.356-1.5625 0-.638.107-1.1686.322-1.5918.218-.4264.521-.7454.908-.957.388-.2149.839-.3223 1.353-.3223zm.01 1.0596c-.29 0-.531.0928-.723.2783-.189.1855-.298.4769-.327.874h2.09c-.003-.2213-.044-.4183-.122-.5908-.075-.1725-.189-.3092-.342-.4102-.15-.1009-.342-.1513-.576-.1513z" fill="#252a2e"/><path d="m16.25 8.25h73.5v35.5h-73.5z" fill="#89c6ed" fill-opacity=".5" stroke="#fff" stroke-width=".5"/><path d="m110.25 8.25h73.5v35.5h-73.5z" fill="#89c6ed" fill-opacity=".5" stroke="#fff" stroke-width=".5"/><path d="m184.25 8.25h39.5v35.5h-39.5z" fill="#89c6ed" fill-opacity=".5" stroke="#fff" stroke-width=".5"/><path d="m90.25 13.25h19.5v23.5h-19.5z" fill="#89c6ed" fill-opacity=".5" stroke="#fff" stroke-width=".5"/><path d="m0 8h7.99999v240h-7.99999z" fill="#ff95f8" fill-opacity=".5" transform="matrix(0 -1 1 0 -8 8)"/><path d="m16 44h16v36h-16z" fill="#ff95f8" fill-opacity=".5" transform="matrix(-1 0 0 -1 32 88)"/><path d="m240 44h16v36h-16z" fill="#ff95f8" fill-opacity=".5" transform="matrix(-1 0 0 -1 480 88)"/><path d="m0 52h7.99999v240h-7.99999z" fill="#ff95f8" fill-opacity=".5" transform="matrix(0 -1 1 0 -52 52)"/></svg>

<svg width="240" height="52" viewBox="0 0 240 52" fill="none" xmlns="http://www.w3.org/2000/svg">
<circle cx="29" cy="41" r="1" fill="#89C6ED"/>
<circle cx="39.1428" cy="41" r="1" fill="#89C6ED"/>
<circle cx="49.2858" cy="41" r="1" fill="#89C6ED"/>
<circle cx="59.4286" cy="41" r="1" fill="#89C6ED"/>
<circle cx="69.5714" cy="41" r="1" fill="#89C6ED"/>
<circle cx="79.7142" cy="41" r="1" fill="#89C6ED"/>
<circle cx="89.8572" cy="41" r="1" fill="#89C6ED"/>
<circle cx="100" cy="41" r="1" fill="#89C6ED"/>
<circle cx="110.143" cy="41" r="1" fill="#89C6ED"/>
<circle cx="120.286" cy="41" r="1" fill="#89C6ED"/>
<circle cx="130.429" cy="41" r="1" fill="#89C6ED"/>
<circle cx="140.571" cy="41" r="1" fill="#89C6ED"/>
<circle cx="150.714" cy="41" r="1" fill="#89C6ED"/>
<circle cx="160.857" cy="41" r="1" fill="#89C6ED"/>
<circle cx="171" cy="41" r="1" fill="#89C6ED"/>
<rect x="28" y="24" width="144" height="2" rx="1" fill="#89C6ED"/>
<rect x="90" y="13" width="20" height="24" rx="8" fill="#CBCDD6"/>
<path d="M101.607 26.4267C101.54 25.8467 101.407 25.2734 101.193 24.7334C100.728 24.9168 100.22 24.9666 99.7278 24.8771C99.2355 24.7876 98.7779 24.5623 98.4067 24.2267C97.8534 24.8 97.36 25.4334 96.9267 26.1C98.2 27.14 100.293 27.4134 101.607 26.4267ZM98.42 23.3534C98.8134 22.9867 99.24 22.6467 99.6867 22.3467C99.2812 21.9739 98.8052 21.686 98.2867 21.5C97.9134 22.08 97.9667 22.84 98.42 23.36M100.147 22.0134C100.453 21.7867 100.78 21.6067 101.133 21.4667C100.825 21.1667 100.433 20.9683 100.008 20.8979C99.5841 20.8276 99.1485 20.8888 98.76 21.0734C99.2734 21.3 99.7467 21.62 100.153 22.0134M95.98 21.3667C95.0867 22.6334 95.5067 24.48 96.54 25.64C96.9833 24.9642 97.4877 24.3304 98.0467 23.7467C97.4734 23.08 97.36 22.1334 97.78 21.3534C97.1867 21.2067 96.5667 21.2134 95.98 21.3667ZM97.78 21.3534L101.44 23.8267C101.88 23.2667 101.887 22.48 101.46 21.9134C101.127 22.0467 100.82 22.2334 100.54 22.4534C100.893 22.8734 101.2 23.3334 101.44 23.8267M98.1534 20.78C98.5467 20.5 99.0134 20.3467 99.4934 20.3334C98.5067 20.1667 97.4934 20.28 96.5667 20.6667C97.1 20.6067 97.64 20.6467 98.1534 20.78ZM101 24.1734C100.76 23.6667 100.453 23.2 100.093 22.78C99.64 23.08 99.2134 23.42 98.8134 23.7867C99.4134 24.3134 100.26 24.4667 101 24.1734ZM102.3 22.7667C102.387 23.38 102.147 23.9934 101.673 24.4C101.867 24.8934 102.013 25.4 102.1 25.92C102.41 25.4595 102.592 24.9247 102.628 24.3705C102.663 23.8163 102.55 23.2627 102.3 22.7667ZM102.187 26.7067C102.2 27.0867 102.187 27.4734 102.133 27.8534C102.835 26.9538 103.173 25.8236 103.08 24.6867C103.013 25.44 102.7 26.1467 102.187 26.7067ZM106.02 25.0134L103.373 23.48C103.687 24.48 103.68 25.5467 103.36 26.5467L106.02 25.0134ZM96.66 26.6734C96.2734 27.3067 95.9867 28 95.82 28.7267C96.6287 29.3361 97.6181 29.6573 98.6306 29.6392C99.643 29.6211 100.62 29.2646 101.407 28.6267C101.587 28.16 101.673 27.66 101.66 27.16C100.868 27.569 99.9752 27.7406 99.0882 27.6543C98.2013 27.568 97.3581 27.2273 96.66 26.6734ZM96.2467 26.1934C95.7225 25.6597 95.3419 25.002 95.1402 24.2817C94.9386 23.5613 94.9224 22.8016 95.0934 22.0734C94.3566 22.9424 93.9749 24.0574 94.0243 25.1956C94.0737 26.3338 94.5507 27.4115 95.36 28.2134C95.5667 27.5 95.8667 26.82 96.2534 26.1934M97.46 19.8667L94.8267 18.3534V21.3867C95.5281 20.6236 96.4476 20.0952 97.46 19.8734V19.8667ZM94.8267 31.6734L97.48 30.14C96.4601 29.9188 95.5334 29.388 94.8267 28.62V31.6734Z" fill="#252A2E"/>
<path d="M197.978 21H197.477V17.1563H196.129V16.7168H199.319V17.1563H197.978V21ZM200.38 17.7891V21H199.894V17.7891H200.38ZM200.143 16.5879C200.223 16.5879 200.291 16.6143 200.348 16.667C200.406 16.7178 200.436 16.7979 200.436 16.9073C200.436 17.0147 200.406 17.0948 200.348 17.1475C200.291 17.2002 200.223 17.2266 200.143 17.2266C200.059 17.2266 199.988 17.2002 199.932 17.1475C199.877 17.0948 199.85 17.0147 199.85 16.9073C199.85 16.7979 199.877 16.7178 199.932 16.667C199.988 16.6143 200.059 16.5879 200.143 16.5879ZM202.448 20.6602C202.528 20.6602 202.61 20.6534 202.694 20.6397C202.778 20.626 202.847 20.6094 202.899 20.5899V20.9678C202.843 20.9932 202.764 21.0147 202.662 21.0323C202.562 21.0498 202.465 21.0586 202.369 21.0586C202.199 21.0586 202.045 21.0293 201.906 20.9707C201.768 20.9102 201.656 20.8086 201.572 20.666C201.49 20.5235 201.449 20.3262 201.449 20.0742V18.17H200.992V17.9326L201.452 17.7422L201.646 17.045H201.938V17.7891H202.879V18.17H201.938V20.0596C201.938 20.2608 201.984 20.4112 202.076 20.5108C202.17 20.6104 202.294 20.6602 202.448 20.6602ZM204.039 21H203.55V16.4414H204.039V21ZM206.304 17.7305C206.577 17.7305 206.812 17.791 207.007 17.9121C207.202 18.0332 207.352 18.2032 207.455 18.4219C207.559 18.6387 207.61 18.8926 207.61 19.1836V19.4854H205.393C205.398 19.8623 205.492 20.1494 205.674 20.3467C205.855 20.544 206.111 20.6426 206.441 20.6426C206.645 20.6426 206.824 20.6241 206.98 20.5869C207.137 20.5498 207.299 20.4951 207.467 20.4229V20.8506C207.305 20.9229 207.144 20.9756 206.983 21.0088C206.825 21.042 206.638 21.0586 206.421 21.0586C206.112 21.0586 205.843 20.9961 205.612 20.8711C205.384 20.7442 205.206 20.5586 205.079 20.3145C204.952 20.0703 204.889 19.7715 204.889 19.418C204.889 19.0723 204.946 18.7735 205.062 18.5215C205.179 18.2676 205.343 18.0723 205.554 17.9356C205.767 17.7989 206.017 17.7305 206.304 17.7305ZM206.298 18.1289C206.038 18.1289 205.831 18.2139 205.677 18.3838C205.522 18.5537 205.431 18.791 205.401 19.0957H207.101C207.099 18.9043 207.068 18.7364 207.01 18.5918C206.953 18.4453 206.866 18.3321 206.749 18.252C206.632 18.17 206.481 18.1289 206.298 18.1289Z" fill="#252A2E"/>
<path d="M194.456 27.8614L192.029 35H190.379L187.957 27.8614H189.485L190.828 32.1094C190.851 32.181 190.888 32.3161 190.94 32.5147C190.993 32.71 191.045 32.9183 191.097 33.1397C191.152 33.3578 191.189 33.5384 191.209 33.6817C191.229 33.5384 191.263 33.3578 191.312 33.1397C191.364 32.9216 191.414 32.7149 191.463 32.5196C191.515 32.321 191.552 32.1843 191.575 32.1094L192.928 27.8614H194.456ZM197.479 29.4287C198.211 29.4287 198.772 29.5882 199.163 29.9073C199.554 30.2263 199.749 30.7113 199.749 31.3623V35H198.709L198.421 34.2578H198.382C198.226 34.4532 198.066 34.6127 197.903 34.7364C197.741 34.8601 197.553 34.9512 197.342 35.0098C197.13 35.0684 196.873 35.0977 196.57 35.0977C196.248 35.0977 195.958 35.0358 195.701 34.9121C195.447 34.7884 195.247 34.5996 195.101 34.3457C194.954 34.0886 194.881 33.7631 194.881 33.3692C194.881 32.7897 195.084 32.3633 195.491 32.0899C195.898 31.8132 196.508 31.6602 197.322 31.6309L198.27 31.6016V31.3623C198.27 31.0759 198.195 30.8659 198.045 30.7325C197.895 30.599 197.687 30.5323 197.42 30.5323C197.156 30.5323 196.897 30.5697 196.644 30.6446C196.39 30.7194 196.136 30.8138 195.882 30.9278L195.389 29.9219C195.678 29.7689 196.002 29.6485 196.36 29.5606C196.722 29.4727 197.094 29.4287 197.479 29.4287ZM198.27 32.4707L197.693 32.4903C197.212 32.5033 196.876 32.5895 196.688 32.7491C196.502 32.9086 196.409 33.1185 196.409 33.3789C196.409 33.6068 196.476 33.7696 196.609 33.8672C196.743 33.9616 196.917 34.0088 197.132 34.0088C197.451 34.0088 197.719 33.9144 197.938 33.7256C198.159 33.5368 198.27 33.2683 198.27 32.92V32.4707ZM202.776 35H201.287V27.4024H202.776V35ZM209.354 29.541V35H208.211L208.011 34.3018H207.933C207.815 34.4873 207.669 34.6387 207.493 34.7559C207.317 34.8731 207.124 34.9593 206.912 35.0147C206.701 35.07 206.481 35.0977 206.253 35.0977C205.862 35.0977 205.522 35.0293 205.232 34.8926C204.943 34.7526 204.716 34.5362 204.554 34.2432C204.394 33.9502 204.314 33.5694 204.314 33.1006V29.541H205.804V32.7295C205.804 33.1201 205.874 33.4147 206.014 33.6133C206.154 33.8119 206.377 33.9112 206.683 33.9112C206.985 33.9112 207.223 33.8428 207.396 33.7061C207.568 33.5661 207.688 33.3627 207.757 33.0957C207.828 32.8256 207.864 32.4968 207.864 32.1094V29.541H209.354ZM213.167 29.4385C213.672 29.4385 214.106 29.5362 214.471 29.7315C214.835 29.9235 215.117 30.2035 215.315 30.5713C215.514 30.9392 215.613 31.3884 215.613 31.919V32.6416H212.093C212.109 33.0616 212.234 33.392 212.469 33.6328C212.706 33.8705 213.035 33.9893 213.455 33.9893C213.803 33.9893 214.122 33.9535 214.412 33.8819C214.702 33.8103 215 33.7028 215.306 33.5596V34.7119C215.035 34.8454 214.752 34.9431 214.456 35.0049C214.163 35.0668 213.807 35.0977 213.387 35.0977C212.84 35.0977 212.355 34.9968 211.932 34.795C211.512 34.5931 211.181 34.2855 210.94 33.8721C210.703 33.4587 210.584 32.9379 210.584 32.3096C210.584 31.6716 210.691 31.141 210.906 30.7178C211.124 30.2914 211.427 29.9724 211.814 29.7608C212.202 29.5459 212.653 29.4385 213.167 29.4385ZM213.177 30.4981C212.887 30.4981 212.646 30.5909 212.454 30.7764C212.265 30.9619 212.156 31.2533 212.127 31.6504H214.217C214.214 31.4291 214.173 31.2321 214.095 31.0596C214.02 30.8871 213.906 30.7504 213.753 30.6494C213.603 30.5485 213.411 30.4981 213.177 30.4981Z" fill="#252A2E"/>
<path d="M16.25 8.25H89.75V43.75H16.25V8.25Z" fill="#89C6ED" fill-opacity="0.5" stroke="white" stroke-width="0.5"/>
<path d="M110.25 8.25H183.75V43.75H110.25V8.25Z" fill="#89C6ED" fill-opacity="0.5" stroke="white" stroke-width="0.5"/>
<path d="M184.25 8.25H223.75V43.75H184.25V8.25Z" fill="#89C6ED" fill-opacity="0.5" stroke="white" stroke-width="0.5"/>
<path d="M90.25 13.25H109.75V36.75H90.25V13.25Z" fill="#89C6ED" fill-opacity="0.5" stroke="white" stroke-width="0.5"/>
<rect y="8" width="7.99999" height="240" transform="rotate(-90 0 8)" fill="#FF95F8" fill-opacity="0.5"/>
<rect x="16" y="44" width="16" height="36" transform="rotate(180 16 44)" fill="#FF95F8" fill-opacity="0.5"/>
<rect x="240" y="44" width="16" height="36" transform="rotate(180 240 44)" fill="#FF95F8" fill-opacity="0.5"/>
<rect y="52" width="7.99999" height="240" transform="rotate(-90 0 52)" fill="#FF95F8" fill-opacity="0.5"/>
</svg>
